X:218
T:Constantine Maguire
C:O'Carolan
S:Colin Hume's website,  colinhume.com  - chords can also be printed below the stave.
N:For the dance "Hartburn Village" by Dave Turner.
Q:1/2=92
M:2/2
R:Reel
L:1/8
K:D
P:A
|: A2 | "D"GFED A2D2 | "/"FGA2 A2Bc | "Bm"d2cB "A"e2dc | "G"d2E2 "A7"E2AG |\
"D"GFED F2A2 | "G"g2f2 "Em"e2d2 | "A"cdcB "A7"A2Bc | "D"d2D2 D2 :|
P:B
B2 | "D"AFAB A2F2 | "Bm"AFAB A2F2 | "Em"G2E2 E2F2 | "A7"G2E2 E2A2 |\
"D"FGA2 D2A2 | "A"C2A2 "G"B,2B2 | "A"cde2 "E7"B2e2 | "A"dcBc A2A2 |
"G"B2c2 d2e2 | "D"f2d2 d2ef | "Em"g2e2 "A7"e2a2 | "D"gfef d4 |\
"A7"ABAG "D"F2A2 | "G"d2B2 G2B2 | "A"c2de "A7"A2c2 | "D"d2D2D4 |]

